X:1
T:[ID 5-17]
T:[ID 5-17]
T:Bezeichnung standardisiert: Lott ist tot ; Schwabisch 8. In dieser Quelle auch als: Schw\"abisch
T:Urheber unbekannt Erstbeleg: 1773 (Datum in der schriftlichen Quelle) Datum in der hier transkribierten schriftlichen Quelle: 1775
C:Urheber unbekannt
C:Erstbeleg: 1773 (Datum in der schriftlichen Quelle)
C:Datum in der hier transkribierten schriftlichen Quelle: 1775
L:1/8
M:3/8
K:G
V:1 treble 
V:1
 e2 e | d2 d | c2 c | B2 G | Ac/A/F/A/ | GB/G/B,/D/ | CB,A, | B,2 B, :: B,/D/GG | F/G/AA | %10
 GB,/D/G/A/ | B2 G | Ac/A/F/A/ | GB/G/B,/D/ | CB,A, | B,2 B, :| %16

